Sources/FrostedUI/Resources/Icons.xcassets/command20.imageset/command-20.svg

<svg width="20" height="20" viewBox="0 0 20 20" fill="none" xmlns="http://www.w3.org/2000/svg" data-fui-icon="true">
  <path
    d="M15 1.5C16.933 1.5 18.5 3.067 18.5 5C18.5 6.933 16.933 8.5 15 8.5H13V11.5H15C16.933 11.5 18.5 13.067 18.5 15C18.5 16.933 16.933 18.5 15 18.5C13.067 18.5 11.5 16.933 11.5 15V13H8.5V15C8.5 16.933 6.933 18.5 5 18.5C3.067 18.5 1.5 16.933 1.5 15C1.5 13.067 3.067 11.5 5 11.5H7V8.5H5C3.067 8.5 1.5 6.933 1.5 5C1.5 3.067 3.067 1.5 5 1.5C6.933 1.5 8.5 3.067 8.5 5V7H11.5V5C11.5 3.067 13.067 1.5 15 1.5ZM5 13C3.89543 13 3 13.8954 3 15C3 16.1046 3.89543 17 5 17C6.10457 17 7 16.1046 7 15V13H5ZM13 15C13 16.1046 13.8954 17 15 17C16.1046 17 17 16.1046 17 15C17 13.8954 16.1046 13 15 13H13V15ZM8.5 11.5H11.5V8.5H8.5V11.5ZM5 3C3.89543 3 3 3.89543 3 5C3 6.10457 3.89543 7 5 7H7V5C7 3.89543 6.10457 3 5 3ZM15 3C13.8954 3 13 3.89543 13 5V7H15C16.1046 7 17 6.10457 17 5C17 3.89543 16.1046 3 15 3Z"
    fill="currentColor"
  />
</svg>

<svg xmlns="http://www.w3.org/2000/svg" width="20" height="20" fill="none" data-fui-icon="true" viewBox="0 0 20 20"><path fill="currentColor" d="M15 1.5a3.5 3.5 0 1 1 0 7h-2v3h2a3.5 3.5 0 1 1-3.5 3.5v-2h-3v2A3.5 3.5 0 1 1 5 11.5h2v-3H5A3.5 3.5 0 1 1 8.5 5v2h3V5A3.5 3.5 0 0 1 15 1.5M5 13a2 2 0 1 0 2 2v-2zm8 2a2 2 0 1 0 2-2h-2zm-4.5-3.5h3v-3h-3zM5 3a2 2 0 1 0 0 4h2V5a2 2 0 0 0-2-2m10 0a2 2 0 0 0-2 2v2h2a2 2 0 1 0 0-4"/></svg>
